build/img/advant-icon-06.svg

<svg width="42" height="55" viewBox="0 0 42 55" fill="none" xmlns="http://www.w3.org/2000/svg">
<g opacity="0.5">
<path d="M37.4102 0H11.801C11.356 0 10.9954 0.360723 10.9954 0.805664C10.9954 1.25061 11.356 1.61133 11.801 1.61133H37.4101C38.642 1.61133 39.6443 2.61336 39.6443 3.84506V51.1549C39.6443 52.3866 38.642 53.3887 37.4101 53.3887H3.84538C2.61347 53.3887 1.61122 52.3866 1.61122 51.1549V3.84506C1.61133 2.61336 2.61357 1.61133 3.84538 1.61133H8.62995C9.075 1.61133 9.43562 1.25061 9.43562 0.805664C9.43562 0.360723 9.075 0 8.62995 0H3.84538C1.72498 0 0 1.72487 0 3.84506V51.1549C0 53.2751 1.72509 55 3.84549 55H37.4102C39.5306 55 41.2557 53.2751 41.2557 51.1549V3.84506C41.2556 1.72487 39.5306 0 37.4102 0V0Z" fill="white"/>
<path d="M36.3001 23.1381H8.163C7.71795 23.1381 7.35734 23.4988 7.35734 23.9437C7.35734 24.3887 7.71795 24.7494 8.163 24.7494H36.3001C36.7452 24.7494 37.1058 24.3887 37.1058 23.9437C37.1058 23.4988 36.7451 23.1381 36.3001 23.1381Z" fill="white"/>
<path d="M37.1058 28.2878C37.1058 27.8428 36.7452 27.4822 36.3001 27.4822H8.163C7.71795 27.4822 7.35734 27.8428 7.35734 28.2878C7.35734 28.7329 7.71795 29.0935 8.163 29.0935H36.3001C36.7451 29.0935 37.1058 28.7329 37.1058 28.2878Z" fill="white"/>
<path d="M20.6278 31.8264H8.163C7.71795 31.8264 7.35734 32.187 7.35734 32.632C7.35734 33.0771 7.71795 33.4377 8.163 33.4377H20.6278C21.0729 33.4377 21.4335 33.0771 21.4335 32.632C21.4335 32.187 21.0729 31.8264 20.6278 31.8264Z" fill="white"/>
<path d="M20.6278 36.1705H8.163C7.71795 36.1705 7.35734 36.5311 7.35734 36.9761C7.35734 37.4212 7.71795 37.7818 8.163 37.7818H20.6278C21.0729 37.7818 21.4335 37.4212 21.4335 36.9761C21.4335 36.5311 21.0729 36.1705 20.6278 36.1705Z" fill="white"/>
<path d="M7.35734 15.2554C7.35734 15.7003 7.71795 16.061 8.163 16.061H36.3001C36.7452 16.061 37.1058 15.7003 37.1058 15.2554C37.1058 14.8104 36.7452 14.4497 36.3001 14.4497H8.163C7.71795 14.4497 7.35734 14.8104 7.35734 15.2554Z" fill="white"/>
<path d="M36.3001 18.7939H8.163C7.71795 18.7939 7.35734 19.1546 7.35734 19.5995C7.35734 20.0445 7.71795 20.4052 8.163 20.4052H36.3001C36.7452 20.4052 37.1058 20.0445 37.1058 19.5995C37.1058 19.1546 36.7451 18.7939 36.3001 18.7939Z" fill="white"/>
<path d="M5.18785 24.7524C5.63451 24.7524 5.99662 24.3903 5.99662 23.9437C5.99662 23.497 5.63451 23.135 5.18785 23.135C4.74119 23.135 4.37907 23.497 4.37907 23.9437C4.37907 24.3903 4.74119 24.7524 5.18785 24.7524Z" fill="white"/>
<path d="M5.18785 16.064C5.63451 16.064 5.99662 15.702 5.99662 15.2553C5.99662 14.8087 5.63451 14.4467 5.18785 14.4467C4.74119 14.4467 4.37907 14.8087 4.37907 15.2553C4.37907 15.702 4.74119 16.064 5.18785 16.064Z" fill="white"/>
<path d="M5.18785 20.4081C5.63451 20.4081 5.99662 20.0461 5.99662 19.5994C5.99662 19.1528 5.63451 18.7908 5.18785 18.7908C4.74119 18.7908 4.37907 19.1528 4.37907 19.5994C4.37907 20.0461 4.74119 20.4081 5.18785 20.4081Z" fill="white"/>
<path d="M5.18785 29.0965C5.63451 29.0965 5.99662 28.7345 5.99662 28.2878C5.99662 27.8411 5.63451 27.4791 5.18785 27.4791C4.74119 27.4791 4.37907 27.8411 4.37907 28.2878C4.37907 28.7345 4.74119 29.0965 5.18785 29.0965Z" fill="white"/>
<path d="M5.18785 33.4406C5.63451 33.4406 5.99662 33.0786 5.99662 32.632C5.99662 32.1853 5.63451 31.8233 5.18785 31.8233C4.74119 31.8233 4.37907 32.1853 4.37907 32.632C4.37907 33.0786 4.74119 33.4406 5.18785 33.4406Z" fill="white"/>
<path d="M5.18785 37.7848C5.63451 37.7848 5.99662 37.4227 5.99662 36.9761C5.99662 36.5294 5.63451 36.1674 5.18785 36.1674C4.74119 36.1674 4.37907 36.5294 4.37907 36.9761C4.37907 37.4227 4.74119 37.7848 5.18785 37.7848Z" fill="white"/>
<path d="M20.6278 40.5145H8.163C7.71795 40.5145 7.35734 40.8751 7.35734 41.3202C7.35734 41.7652 7.71795 42.1259 8.163 42.1259H20.6278C21.0729 42.1259 21.4335 41.7652 21.4335 41.3202C21.4335 40.8751 21.0729 40.5145 20.6278 40.5145Z" fill="white"/>
<path d="M5.18785 42.1289C5.63451 42.1289 5.99662 41.7669 5.99662 41.3203C5.99662 40.8736 5.63451 40.5116 5.18785 40.5116C4.74119 40.5116 4.37907 40.8736 4.37907 41.3203C4.37907 41.7669 4.74119 42.1289 5.18785 42.1289Z" fill="white"/>
<path d="M21.4335 45.6646C21.4335 45.2195 21.0729 44.8589 20.6278 44.8589H8.163C7.71795 44.8589 7.35734 45.2195 7.35734 45.6646C7.35734 46.1096 7.71795 46.4702 8.163 46.4702H20.6278C21.0729 46.4702 21.4335 46.1095 21.4335 45.6646Z" fill="white"/>
<path d="M5.18787 50.8143H9.7085C10.1536 50.8143 10.5142 50.4537 10.5142 50.0087C10.5142 49.5636 10.1536 49.203 9.7085 49.203H5.18787C4.74282 49.203 4.3822 49.5636 4.3822 50.0087C4.3822 50.4537 4.74282 50.8143 5.18787 50.8143Z" fill="white"/>
<path d="M30.956 50.8143H35.4766C35.9217 50.8143 36.2823 50.4537 36.2823 50.0087C36.2823 49.5636 35.9217 49.203 35.4766 49.203H30.956C30.511 49.203 30.1503 49.5636 30.1503 50.0087C30.1503 50.4537 30.5111 50.8143 30.956 50.8143Z" fill="white"/>
<path d="M5.18785 46.4731C5.63451 46.4731 5.99662 46.1111 5.99662 45.6644C5.99662 45.2178 5.63451 44.8558 5.18785 44.8558C4.74119 44.8558 4.37907 45.2178 4.37907 45.6644C4.37907 46.111 4.74119 46.4731 5.18785 46.4731Z" fill="white"/>
<path d="M17.0355 5.75146C17.4806 5.75146 17.8412 5.39074 17.8412 4.9458C17.8412 4.50086 17.4806 4.14014 17.0355 4.14014H14.6434C14.1983 4.14014 13.8377 4.50086 13.8377 4.9458V10.847C13.8377 11.292 14.1983 11.6527 14.6434 11.6527C15.0884 11.6527 15.449 11.292 15.449 10.847V8.64616H16.8455C17.2906 8.64616 17.6512 8.28544 17.6512 7.8405C17.6512 7.39556 17.2906 7.03483 16.8455 7.03483H15.449V5.75146H17.0355Z" fill="white"/>
<path d="M23.1282 5.75146C23.5732 5.75146 23.9338 5.39074 23.9338 4.9458C23.9338 4.50086 23.5732 4.14014 23.1282 4.14014H20.736C20.2909 4.14014 19.9303 4.50086 19.9303 4.9458V10.847C19.9303 11.292 20.2909 11.6527 20.736 11.6527C21.181 11.6527 21.5417 11.292 21.5417 10.847V8.64616H22.938C23.3831 8.64616 23.7437 8.28544 23.7437 7.8405C23.7437 7.39556 23.3831 7.03483 22.938 7.03483H21.5417V5.75146H23.1282Z" fill="white"/>
<path d="M28.8723 5.70099C29.3174 5.70099 29.678 5.34027 29.678 4.89532C29.678 4.45038 29.3174 4.08966 28.8723 4.08966H26.39C25.945 4.08966 25.5844 4.45038 25.5844 4.89532V10.7857C25.5844 11.2306 25.945 11.5914 26.39 11.5914H28.8723C29.3174 11.5914 29.678 11.2306 29.678 10.7857C29.678 10.3408 29.3174 9.98003 28.8723 9.98003H27.1957V8.64617H28.6893C29.1343 8.64617 29.495 8.28545 29.495 7.84051C29.495 7.39557 29.1343 7.03485 28.6893 7.03485H27.1957V5.70099H28.8723Z" fill="white"/>
<path d="M36.8132 6.41323C36.8132 5.11708 35.7193 4.06262 34.3749 4.06262H32.7949C32.7946 4.06262 32.7943 4.06262 32.794 4.06262C32.7937 4.06262 32.7933 4.06262 32.793 4.06262C32.348 4.06262 31.9874 4.42334 31.9874 4.86829V10.813C31.9874 11.258 32.348 11.6187 32.793 11.6187C33.2381 11.6187 33.5987 11.258 33.5987 10.813V9.29579L35.4027 11.3452C35.5619 11.5261 35.7844 11.6185 36.0078 11.6185C36.1969 11.6185 36.3867 11.5523 36.5398 11.4175C36.8738 11.1235 36.9062 10.6144 36.6123 10.2804L35.165 8.63622C36.1227 8.31921 36.8132 7.44276 36.8132 6.41323ZM34.3749 7.15251C34.1939 7.15251 33.8956 7.15369 33.6072 7.15498C33.6058 6.87471 33.6047 6.58714 33.6047 6.41323C33.6047 6.26466 33.6039 5.96807 33.6032 5.67395H34.375C34.8233 5.67395 35.2019 6.01254 35.2019 6.41323C35.2019 6.81391 34.8232 7.15251 34.3749 7.15251Z" fill="white"/>
<path d="M8.0195 4.11835C5.93605 4.11835 4.24104 5.81314 4.24104 7.89637C4.24104 9.97961 5.93605 11.6744 8.0195 11.6744C10.1029 11.6744 11.798 9.97961 11.798 7.89637C11.798 5.81314 10.1028 4.11835 8.0195 4.11835ZM8.0195 10.0631C6.82454 10.0631 5.85237 9.09112 5.85237 7.89637C5.85237 6.70163 6.82454 5.72968 8.0195 5.72968C9.21446 5.72968 10.1866 6.70163 10.1866 7.89637C10.1866 9.09112 9.21446 10.0631 8.0195 10.0631Z" fill="white"/>
<path d="M30.2449 46.3594C30.6899 46.3594 31.0505 45.9988 31.0505 45.5537V45.1506H31.3704C32.8326 45.1506 34.0221 43.9612 34.0221 42.4991V41.1173C34.0221 39.6554 32.8327 38.4659 31.3704 38.4659H31.0505V35.0039H31.3704C31.9441 35.0039 32.4108 35.4705 32.4108 36.044V36.199C32.4108 36.6441 32.7714 37.0047 33.2165 37.0047C33.6615 37.0047 34.0221 36.6441 34.0221 36.199V36.044C34.0221 34.5821 32.8327 33.3926 31.3704 33.3926H31.0505V32.7425C31.0505 32.2974 30.6899 31.9368 30.2449 31.9368C29.7998 31.9368 29.4392 32.2974 29.4392 32.7425V33.3926H29.1192C27.6572 33.3926 26.4676 34.582 26.4676 36.044V37.4259C26.4676 38.8878 27.6571 40.0773 29.1192 40.0773H29.4392V43.5392H29.1192C28.5456 43.5392 28.0789 43.0726 28.0789 42.4991C28.0789 42.054 27.7183 41.6934 27.2733 41.6934C26.8282 41.6934 26.4676 42.054 26.4676 42.4991C26.4676 43.9611 27.6571 45.1506 29.1192 45.1506H29.4392V45.5537C29.4392 45.9988 29.7999 46.3594 30.2449 46.3594ZM29.1193 38.466C28.5457 38.466 28.079 37.9995 28.079 37.426V36.0441C28.079 35.4706 28.5457 35.004 29.1193 35.004H29.4393V38.466H29.1193ZM31.0505 40.0774H31.3704C31.9441 40.0774 32.4108 40.5439 32.4108 41.1174V42.4992C32.4108 43.0727 31.9441 43.5394 31.3704 43.5394H31.0505V40.0774Z" fill="white"/>
</g>
</svg>

<svg width="42" height="55" fill="none" xmlns="http://www.w3.org/2000/svg"><g opacity=".5" fill="#fff"><path d="M37.41 0H11.801a.806.806 0 100 1.611h25.61a2.237 2.237 0 012.233 2.234v47.31a2.237 2.237 0 01-2.234 2.234H3.845a2.237 2.237 0 01-2.234-2.234V3.845a2.237 2.237 0 012.234-2.234H8.63A.806.806 0 108.63 0H3.845A3.85 3.85 0 000 3.845v47.31A3.85 3.85 0 003.845 55H37.41a3.85 3.85 0 003.846-3.845V3.845A3.85 3.85 0 0037.41 0z"/><path d="M36.3 23.138H8.163a.806.806 0 100 1.611H36.3a.806.806 0 100-1.61zm.806 5.15a.806.806 0 00-.806-.806H8.163a.806.806 0 100 1.611H36.3c.445 0 .806-.36.806-.805zm-16.478 3.538H8.163a.806.806 0 100 1.612h12.465a.806.806 0 100-1.612zm0 4.344H8.163a.806.806 0 100 1.612h12.465a.806.806 0 100-1.611zM7.357 15.255c0 .445.36.806.806.806H36.3a.806.806 0 100-1.611H8.163a.806.806 0 00-.806.805zM36.3 18.794H8.163a.806.806 0 100 1.611H36.3a.806.806 0 100-1.611zM5.188 24.752a.809.809 0 100-1.617.809.809 0 000 1.617zm0-8.688a.809.809 0 100-1.617.809.809 0 000 1.617zm0 4.344a.809.809 0 100-1.617.809.809 0 000 1.617zm0 8.688a.809.809 0 100-1.617.809.809 0 000 1.617zm0 4.344a.809.809 0 100-1.617.809.809 0 000 1.618zm0 4.345a.809.809 0 100-1.618.809.809 0 000 1.618zm15.44 2.729H8.163a.806.806 0 100 1.612h12.465a.806.806 0 100-1.611zm-15.44 1.615a.809.809 0 100-1.617.809.809 0 000 1.617zm16.245 3.536a.806.806 0 00-.805-.806H8.163a.806.806 0 100 1.611h12.465c.445 0 .805-.36.805-.805zM5.188 50.814h4.52a.806.806 0 100-1.611h-4.52a.806.806 0 100 1.611zm25.768 0h4.52a.806.806 0 100-1.611h-4.52a.806.806 0 100 1.611zM5.188 46.473a.809.809 0 100-1.617.809.809 0 000 1.617zM17.035 5.751a.806.806 0 100-1.61h-2.392a.806.806 0 00-.805.805v5.901a.806.806 0 101.611 0v-2.2h1.397a.806.806 0 100-1.612h-1.397V5.75h1.586zm6.093 0a.806.806 0 100-1.61h-2.392a.806.806 0 00-.806.805v5.901a.806.806 0 101.612 0v-2.2h1.396a.806.806 0 100-1.612h-1.396V5.75h1.586zm5.744-.05a.806.806 0 100-1.611H26.39a.806.806 0 00-.806.805v5.89c0 .446.361.806.806.806h2.482a.806.806 0 100-1.611h-1.676V8.646h1.493a.806.806 0 100-1.611h-1.493V5.7h1.676zm7.941.712c0-1.296-1.094-2.35-2.438-2.35h-1.582a.806.806 0 00-.806.805v5.945a.806.806 0 101.612 0V9.296l1.804 2.05a.804.804 0 001.137.072.806.806 0 00.072-1.138l-1.447-1.644c.958-.317 1.648-1.193 1.648-2.223zm-2.438.74c-.181 0-.48 0-.768.002l-.002-.742-.002-.74h.772c.448 0 .827.34.827.74 0 .4-.379.74-.827.74zM8.02 4.118a3.783 3.783 0 00-3.78 3.778 3.783 3.783 0 003.779 3.778 3.783 3.783 0 003.778-3.778A3.783 3.783 0 008.02 4.118zm0 5.945a2.17 2.17 0 01-2.168-2.167A2.17 2.17 0 018.02 5.73a2.17 2.17 0 012.167 2.166 2.17 2.17 0 01-2.167 2.167zM30.245 46.36a.805.805 0 00.805-.806v-.403h.32a2.655 2.655 0 002.652-2.652v-1.382a2.655 2.655 0 00-2.652-2.651h-.32v-3.462h.32c.574 0 1.04.467 1.04 1.04v.155a.806.806 0 101.612 0v-.155a2.655 2.655 0 00-2.652-2.651h-.32v-.65a.806.806 0 10-1.61 0v.65h-.32a2.655 2.655 0 00-2.652 2.651v1.382a2.655 2.655 0 002.651 2.651h.32v3.462h-.32c-.573 0-1.04-.466-1.04-1.04a.806.806 0 10-1.611 0 2.655 2.655 0 002.651 2.652h.32v.403c0 .445.36.805.806.805zm-1.126-7.894c-.573 0-1.04-.467-1.04-1.04v-1.382c0-.573.467-1.04 1.04-1.04h.32v3.462h-.32zm1.931 1.611h.32c.574 0 1.04.467 1.04 1.04V42.5a1.04 1.04 0 01-1.04 1.04h-.32v-3.462z"/></g></svg>
